svg/account_multiple_star.svg

<svg xmlns="http://www.w3.org/2000/svg" viewBox="0 0 24 24"><title>account_multiple_star</title><path d="M19 17v2H7v-2s0-4 6-4 6 4 6 4m-3-9c0-1.7-1.3-3-3-3s-3 1.3-3 3 1.3 3 3 3 3-1.3 3-3m3.2 5.1c1.1 1 1.8 2.4 1.8 3.9v2h3v-2s0-3.4-4.8-3.9M18 5c-.3 0-.6 0-.9.1 1.2 1.7 1.2 4 0 5.7.3.2.6.2.9.2 1.7 0 3-1.3 3-3s-1.3-3-3-3M4 13.3l2.4 1.5-.6-2.8L8 10.1l-2.9-.3L4 7.2 2.9 9.8l-2.9.3L2.2 12l-.7 2.8z"/></svg>

<svg version="1.1" xmlns="http://www.w3.org/2000/svg" viewBox="0 0 24 24"><title>account_multiple_star</title><path d="M19,17v2H7v-2c0,0,0-4,6-4S19,17,19,17 M16,8c0-1.7-1.3-3-3-3s-3,1.3-3,3s1.3,3,3,3S16,9.7,16,8 M19.2,13.1c1.1,1,1.8,2.4,1.8,3.9v2h3v-2C24,17,24,13.6,19.2,13.1 M18,5c-0.3,0-0.6,0-0.9,0.1c1.2,1.7,1.2,4,0,5.7C17.4,11,17.7,11,18,11c1.7,0,3-1.3,3-3S19.7,5,18,5 M4,13.3l2.4,1.5L5.8,12L8,10.1L5.1,9.8L4,7.2L2.9,9.8L0,10.1L2.2,12l-0.7,2.8L4,13.3z"/></svg>
